X: 1
T: Richmond
C:
R: reel
Z: 2014 John Chambers <jc:trillian.mit.edu>
S: handwritten MS by John Chambers (1970s)
M: 1/4
L: 1/16
K: D
FG |\
"D"A2f2 fgfe | dBAG FDFG | "A7"A2AA BAcA |\
[1,3 "D"dBAG FD :|[2,4 "D"d2d2 Hd2 :|
K: A
|: cd |\
"A"efed cAcd | efed cAcd | "E7"e2ee fege |\
[1,3 "A"afed cAcd :|[2,4 "A"A6 :|
